icons/file-edit-line.svg

<svg viewBox="0 0 24 24" fill="currentColor" xmlns="http://www.w3.org/2000/svg">
    <path d="M21 6.75736L19 8.75736V4H10V9H5V20H19V17.2426L21 15.2426V21.0082C21 21.556 20.5551 22 20.0066 22H3.9934C3.44476 22 3 21.5501 3 20.9932V8L9.00319 2H19.9978C20.5513 2 21 2.45531 21 2.9918V6.75736ZM21.7782 8.80761L23.1924 10.2218L15.4142 18L13.9979 17.9979L14 16.5858L21.7782 8.80761Z"/>
</svg>

<svg xmlns="http://www.w3.org/2000/svg" viewBox="0 0 24 24">
    <g>
        <path fill="none" d="M0 0h24v24H0z"/>
        <path d="M21 6.757l-2 2V4h-9v5H5v11h14v-2.757l2-2v5.765a.993.993 0 0 1-.993.992H3.993A1 1 0 0 1 3 20.993V8l6.003-6h10.995C20.55 2 21 2.455 21 2.992v3.765zm.778 2.05l1.414 1.415L15.414 18l-1.416-.002.002-1.412 7.778-7.778z"/>
    </g>
</svg>
